Simply black circles/symbolic/actions/help-about-symbolic.svg

<svg xmlns="http://www.w3.org/2000/svg" width="24" height="24">
  <path fill="gray" d="M11.966797 1.9824219c.64142 0 2.709615 5.2697429 3.228515 5.6542969.518921.3845536 6.071382.7625043 6.269532 1.3847656.198214.6222247-4.07715 4.2547276-4.275391 4.8769536-.185517.582394.996 5.440138.722656 6.375a10.119383 10.119383 0 0 0 4.173829-8.171876A10.119383 10.119383 0 0 0 11.966797 1.9824219zm0 0A10.119383 10.119383 0 0 0 1.8457031 12.101562a10.119383 10.119383 0 0 0 4.1757813 8.177735c-.2785302-.923654.9084732-5.797526.7226562-6.380859-.1982139-.622226-4.4736316-4.2547289-4.2753906-4.8769536.1982139-.6222244 5.7506303-1.0002119 6.2695312-1.3847656.5189192-.3845541 2.5871048-5.6542969 3.2285158-5.6542969zm0 15.7871091c-.604537 0-4.8188004 2.683072-5.7363282 2.669922a10.119383 10.119383 0 0 0 5.7363282 1.78125 10.119383 10.119383 0 0 0 5.714844-1.78125c-.962873-.030136-5.115233-2.669922-5.714844-2.669922z"/>
</svg>

<?xml version="1.0" encoding="UTF-8" standalone="no"?>
<svg
   xmlns:dc="http://purl.org/dc/elements/1.1/"
   xmlns:cc="http://creativecommons.org/ns#"
   xmlns:rdf="http://www.w3.org/1999/02/22-rdf-syntax-ns#"
   xmlns:svg="http://www.w3.org/2000/svg"
   xmlns="http://www.w3.org/2000/svg"
   xmlns:sodipodi="http://sodipodi.sourceforge.net/DTD/sodipodi-0.dtd"
   xmlns:inkscape="http://www.inkscape.org/namespaces/inkscape"
   viewBox="0 0 24 24"
   version="1.1"
   id="svg4"
   sodipodi:docname="help-about.svg"
   inkscape:version="0.92.3 (2405546, 2018-03-11)"
   width="24"
   height="24"
   style="fill:#000000">
  <metadata
     id="metadata10">
    <rdf:RDF>
      <cc:Work
         rdf:about="">
        <dc:format>image/svg+xml</dc:format>
        <dc:type
           rdf:resource="http://purl.org/dc/dcmitype/StillImage" />
        <dc:title></dc:title>
      </cc:Work>
    </rdf:RDF>
  </metadata>
  <defs
     id="defs8" />
  <sodipodi:namedview
     pagecolor="#ffffff"
     bordercolor="#666666"
     borderopacity="1"
     objecttolerance="10"
     gridtolerance="10"
     guidetolerance="10"
     inkscape:pageopacity="0"
     inkscape:pageshadow="2"
     inkscape:window-width="1366"
     inkscape:window-height="719"
     id="namedview6"
     showgrid="false"
     inkscape:zoom="15.6742"
     inkscape:cx="12"
     inkscape:cy="10.039793"
     inkscape:window-x="0"
     inkscape:window-y="25"
     inkscape:window-maximized="1"
     inkscape:current-layer="svg4"
     showguides="true"
     inkscape:guide-bbox="true" />
  <path
     style="fill:#808080;fill-opacity:1;stroke-width:0.26004881"
     d="M 11.966797 1.9824219 C 12.608217 1.9824219 14.676412 7.2521648 15.195312 7.6367188 C 15.714233 8.0212724 21.266694 8.3992231 21.464844 9.0214844 C 21.663058 9.6437091 17.387694 13.276212 17.189453 13.898438 C 17.003936 14.480832 18.185453 19.338576 17.912109 20.273438 A 10.119383 10.119383 0 0 0 22.085938 12.101562 A 10.119383 10.119383 0 0 0 11.966797 1.9824219 z M 11.966797 1.9824219 A 10.119383 10.119383 0 0 0 1.8457031 12.101562 A 10.119383 10.119383 0 0 0 6.0214844 20.279297 C 5.7429542 19.355643 6.9299576 14.481771 6.7441406 13.898438 C 6.5459267 13.276212 2.270509 9.6437091 2.46875 9.0214844 C 2.6669639 8.39926 8.2193803 8.0212725 8.7382812 7.6367188 C 9.2572004 7.2521647 11.325386 1.9824219 11.966797 1.9824219 z M 11.966797 17.769531 C 11.36226 17.769531 7.1479966 20.452603 6.2304688 20.439453 A 10.119383 10.119383 0 0 0 11.966797 22.220703 A 10.119383 10.119383 0 0 0 17.681641 20.439453 C 16.718768 20.409317 12.566408 17.769531 11.966797 17.769531 z "
     id="path816" />
</svg>
